X: 1834
T: Rita Baker's First Set Tune
B: australian traditional tunes wiki
M:6/8
L:1/8
R: Jig
Q: 3/8=100
K:G
V:1 
(3AB^c|:"G"d2d ^cde|"G"d2BG2B|"D7"A2F DFA|"G"B2GD2B/c/|
"G"d2d ^cde|"G"d2BG2B|"D7"A2F|DEF|1"G"G3AB^c:|2"G"G3GAB||
|:"C"c2cc2c|c2d efe|"G"d2d ^cde|d2BG2B|"C"ccc c2c|
c2d efe|1"G"d2d "D7"dcB|"D"A4z2:|2"G"d2d "D7"def|"G"g3||
% abcbook-tune_id 6342d53a9d22b7322da47afc


% abcbook-boost 0
% abcbook-tablature 
% abcbook-transpose 
% abcbook-lastupdated 1665324386827
% abcbook-soundfonts 
% abcbook-repeats 1
% NFF Book 2006

